!!!OTL: Die Mordeltern Es hatte ein Gastwirt einen Sohn,
!!!ARE: Europa, Mitteleuropa, Deutschland (), Brandenburg, Mark
!!!YOR: 4, S. 307
!!    ????
!!!SCT: Q0085E
!!!YEM: Copyright 1995, estate of Helmut Schaffrath.
**kern
*ICvox
*Ivox
*M3/4
*k[f#]
*G:
{4g
=1
16g
16g
8b
4dd
4b
=2
8cc
8b
4.a}
{8b
=3
8cc
8a
8f#
8g
8a
8f#
=4
8g
8e
4.d}
{8d
=5
8g
8f#
4g
4b
=6
4a
4g
8r}
{8d
=7
8g
8f#
4g
4b
=8
4a
4g}
==
!!!AGN: Ballade, Habgier, Mord, Reue, Selbstmord
!!!ONB: ESAC (Essen Associative Code) Database: BALLADE
!!!AMT: simple triple
!!!AIN: vox
!!!EED: Helmut Schaffrath
!!!EEV: 1.0
*-
